.github/assets/header.svg

<svg fill="none" height="640" viewBox="0 0 1280 640" width="1280" xmlns="http://www.w3.org/2000/svg" xmlns:xlink="http://www.w3.org/1999/xlink"><linearGradient id="a"><stop offset="0" stop-color="#f8d239"/><stop offset="1" stop-color="#f0b90b"/></linearGradient><linearGradient id="b" gradientUnits="userSpaceOnUse" x1=".000001" x2="1280" xlink:href="#a" y1="320" y2="320"/><linearGradient id="c" gradientUnits="userSpaceOnUse" x1="639.989" x2="1735.99" y1="93" y2="93"><stop offset="0" stop-color="#f0b90b"/><stop offset="1" stop-color="#f8d239"/></linearGradient><linearGradient id="d" gradientUnits="userSpaceOnUse" x1="640.2" x2="1336.2" xlink:href="#a" y1="176.2" y2="176.2"/><clipPath id="e"><rect height="640" rx="160" width="1280"/></clipPath><g clip-path="url(#e)"><rect fill="url(#b)" height="640" rx="160" width="1280"/><path d="m639.989-455h1096v1096h-1096z" fill="url(#c)" transform="matrix(.70710678 .70710678 -.70710678 .70710678 -134.285147 -585.806976)"/><path d="m640.2-171.8h696v696h-696z" fill="url(#d)" transform="matrix(.70710678 .70710678 -.70710678 .70710678 66.029294 -503.008816)"/><g fill="#1b1f29"><path d="m435 292.931v54.138h27.457c7.989 0 13.961-6.825 13.961-15.512 0-9.23-6.98-12.565-11.712-12.643v-.465c4.964-.31 9.696-3.413 9.696-11.635 0-8.376-5.43-13.883-14.349-13.883zm10.238 22.57v-13.883h12.643c3.723 0 5.895 2.094 5.895 5.739v2.405c0 3.568-2.172 5.739-5.895 5.739zm0 22.881v-14.504h14.272c3.878 0 6.205 2.172 6.205 5.972v2.638c0 3.8-2.327 5.894-6.205 5.894zm38.943 8.687h24.587v-8.221h-7.213v-37.696h7.213v-8.221h-24.587v8.221h7.136v37.696h-7.136zm50.559-27.767 16.289 27.767h11.246v-54.138h-9.695v39.014h-.233l-5.584-11.247-16.288-27.767h-11.247v54.138h9.695v-39.014h.233zm73.742 27.767h10.627l-17.995-54.138h-12.72l-18.149 54.138h10.393l4.266-13.806h19.235zm-13.805-44.831 6.98 22.261h-14.271l6.903-22.261zm47.922 17.064 16.288 27.767h11.247v-54.138h-9.695v39.014h-.233l-5.584-11.247-16.289-27.767h-11.246v54.138h9.695v-39.014h.233zm61.255 28.698c9.696 0 16.133-4.731 20.011-12.798l-8.299-4.886c-1.784 4.886-5.584 8.609-11.712 8.609-7.601 0-12.487-5.274-12.487-14.582v-8.531c0-9.23 4.886-14.737 12.487-14.737 6.05 0 9.463 3.257 11.014 8.066l8.765-4.653c-3.801-8.377-10.083-12.488-19.779-12.488-14.271 0-23.346 10.161-23.346 28.388s9.075 27.612 23.346 27.612zm28.745-.931h35.679v-9.075h-25.441v-13.806h22.493v-9.074h-22.493v-13.108h25.441v-9.075h-35.679zm62.589 0h24.587v-8.221h-7.213v-37.696h7.213v-8.221h-24.587v8.221h7.135v37.696h-7.135zm56.066.931c9.695 0 16.133-4.731 20.011-12.798l-8.299-4.886c-1.784 4.886-5.585 8.609-11.712 8.609-7.601 0-12.488-5.274-12.488-14.582v-8.531c0-9.23 4.887-14.737 12.488-14.737 6.05 0 9.462 3.257 11.013 8.066l8.765-4.653c-3.8-8.377-10.083-12.488-19.778-12.488-14.272 0-23.347 10.161-23.347 28.388s9.075 27.612 23.347 27.612zm49.011 0c14.272 0 23.579-9.695 23.579-28s-9.307-28-23.579-28c-14.194 0-23.579 9.695-23.579 28s9.385 28 23.579 28zm0-9.075c-7.756 0-12.72-5.507-12.72-14.737v-8.376c0-9.23 4.964-14.737 12.72-14.737 7.757 0 12.721 5.507 12.721 14.737v8.376c0 9.23-4.964 14.737-12.721 14.737zm49.477-19.623 16.288 27.767h11.247v-54.138h-9.695v39.014h-.233l-5.585-11.247-16.288-27.767h-11.246v54.138h9.695v-39.014h.233zm57.068 28.698c12.95 0 20.32-6.981 20.32-17.219 0-8.92-5.12-13.806-16.06-15.745l-5.04-.931c-5.19-.93-7.52-2.637-7.52-6.748 0-4.033 3.02-6.36 8.84-6.36 5.74 0 9.46 2.25 12.1 5.585l6.98-6.593c-4.34-5.197-10.39-7.989-18.54-7.989-12.095 0-19.619 6.283-19.619 15.978 0 8.842 5.275 14.039 16.209 15.745l5.12.776c5.66 1.008 7.37 3.257 7.37 6.903 0 4.576-3.26 7.601-9.54 7.601-5.59 0-10.161-2.327-13.884-6.671l-6.904 6.671c4.577 5.352 10.937 8.997 20.168 8.997z"/><path d="m393 320-70-70-70 70 70 70z"/></g></g></svg>

<svg width="1280" height="640" viewBox="0 0 1280 640" fill="none" xmlns="http://www.w3.org/2000/svg">
    <g clip-path="url(#clip0_170_208)">
        <rect width="1280" height="640" rx="160" fill="url(#paint0_linear_170_208)"/>
        <rect x="639.989" y="-455" width="1096" height="1096" transform="rotate(45 639.989 -455)" fill="url(#paint1_linear_170_208)"/>
        <rect x="640.2" y="-171.8" width="696" height="696" transform="rotate(45 640.2 -171.8)" fill="url(#paint2_linear_170_208)"/>
        <path d="M435 292.931V347.069H462.457C470.446 347.069 476.418 340.244 476.418 331.557C476.418 322.327 469.438 318.992 464.706 318.914V318.449C469.67 318.139 474.402 315.036 474.402 306.814C474.402 298.438 468.972 292.931 460.053 292.931H435ZM445.238 315.501V301.618H457.881C461.604 301.618 463.776 303.712 463.776 307.357V309.762C463.776 313.33 461.604 315.501 457.881 315.501H445.238ZM445.238 338.382V323.878H459.51C463.388 323.878 465.715 326.05 465.715 329.85V332.488C465.715 336.288 463.388 338.382 459.51 338.382H445.238ZM484.181 347.069H508.768V338.848H501.555V301.152H508.768V292.931H484.181V301.152H491.317V338.848H484.181V347.069ZM534.74 319.302L551.029 347.069H562.275V292.931H552.58V331.945H552.347L546.763 320.698L530.475 292.931H519.228V347.069H528.923V308.055H529.156L534.74 319.302ZM608.482 347.069H619.109L601.114 292.931H588.394L570.245 347.069H580.638L584.904 333.263H604.139L608.482 347.069ZM594.677 302.238L601.657 324.499H587.386L594.289 302.238H594.677ZM642.599 319.302L658.887 347.069H670.134V292.931H660.439V331.945H660.206L654.622 320.698L638.333 292.931H627.087V347.069H636.782V308.055H637.015L642.599 319.302ZM703.854 348C713.55 348 719.987 343.269 723.865 335.202L715.566 330.316C713.782 335.202 709.982 338.925 703.854 338.925C696.253 338.925 691.367 333.651 691.367 324.343V315.812C691.367 306.582 696.253 301.075 703.854 301.075C709.904 301.075 713.317 304.332 714.868 309.141L723.633 304.488C719.832 296.111 713.55 292 703.854 292C689.583 292 680.508 302.161 680.508 320.388C680.508 338.615 689.583 348 703.854 348ZM732.599 347.069H768.278V337.994H742.837V324.188H765.33V315.114H742.837V302.006H768.278V292.931H732.599V347.069ZM795.188 347.069H819.775V338.848H812.562V301.152H819.775V292.931H795.188V301.152H802.323V338.848H795.188V347.069ZM851.254 348C860.949 348 867.387 343.269 871.265 335.202L862.966 330.316C861.182 335.202 857.381 338.925 851.254 338.925C843.653 338.925 838.766 333.651 838.766 324.343V315.812C838.766 306.582 843.653 301.075 851.254 301.075C857.304 301.075 860.716 304.332 862.267 309.141L871.032 304.488C867.232 296.111 860.949 292 851.254 292C836.982 292 827.907 302.161 827.907 320.388C827.907 338.615 836.982 348 851.254 348ZM900.265 348C914.537 348 923.844 338.305 923.844 320C923.844 301.695 914.537 292 900.265 292C886.071 292 876.686 301.695 876.686 320C876.686 338.305 886.071 348 900.265 348ZM900.265 338.925C892.509 338.925 887.545 333.418 887.545 324.188V315.812C887.545 306.582 892.509 301.075 900.265 301.075C908.022 301.075 912.986 306.582 912.986 315.812V324.188C912.986 333.418 908.022 338.925 900.265 338.925ZM949.742 319.302L966.03 347.069H977.277V292.931H967.582V331.945H967.349L961.764 320.698L945.476 292.931H934.23V347.069H943.925V308.055H944.158L949.742 319.302ZM1006.81 348C1019.76 348 1027.13 341.019 1027.13 330.781C1027.13 321.861 1022.01 316.975 1011.07 315.036L1006.03 314.105C1000.84 313.175 998.51 311.468 998.51 307.357C998.51 303.324 1001.53 300.997 1007.35 300.997C1013.09 300.997 1016.81 303.247 1019.45 306.582L1026.43 299.989C1022.09 294.792 1016.04 292 1007.89 292C995.795 292 988.271 298.283 988.271 307.978C988.271 316.82 993.546 322.017 1004.48 323.723L1009.6 324.499C1015.26 325.507 1016.97 327.756 1016.97 331.402C1016.97 335.978 1013.71 339.003 1007.43 339.003C1001.84 339.003 997.269 336.676 993.546 332.332L986.642 339.003C991.219 344.355 997.579 348 1006.81 348Z" fill="#1B1F29"/>
        <path d="M393 320L323 250L253 320L323 390L393 320Z" fill="#1B1F29"/>
    </g>
    <defs>
        <linearGradient id="paint0_linear_170_208" x1="1.07394e-06" y1="320" x2="1280" y2="320" gradientUnits="userSpaceOnUse">
            <stop stop-color="#F8D239"/>
            <stop offset="1" stop-color="#F0B90B"/>
        </linearGradient>
        <linearGradient id="paint1_linear_170_208" x1="639.989" y1="93" x2="1735.99" y2="93" gradientUnits="userSpaceOnUse">
            <stop stop-color="#F0B90B"/>
            <stop offset="1" stop-color="#F8D239"/>
        </linearGradient>
        <linearGradient id="paint2_linear_170_208" x1="640.2" y1="176.2" x2="1336.2" y2="176.2" gradientUnits="userSpaceOnUse">
            <stop stop-color="#F8D239"/>
            <stop offset="1" stop-color="#F0B90B"/>
        </linearGradient>
        <clipPath id="clip0_170_208">
            <rect width="1280" height="640" rx="160" fill="white"/>
        </clipPath>
    </defs>
</svg>
